!!!!SEGMENT: pl-kk--kk-i-3--026_anonim--prosa-po-festis-resurrectionis-domini-virgini-mariae.krn
!!!cenid: 15xx:634
!!!COM: Anonim
!!!COM-rismid: pe30004985
!!!CDT:
!!!CNT:
!!!OTL: Prosa po festis Resurrectionis Domini/Virgini Mariae
!!!PDT:
!!!AGN:
!!!SMS-siglum: PL-Kk
!!!SMS-shelfmark: Kk.I.3
!!!SMS-shelfwork: 026 W
!!!SMS-variant:
!!!SMS-altvar:
!!!NIFC-rismid: 1001145526
!!!URL-scan: http://repozytorium.nifc.pl/skany/pl-kk-nut--i-3
!!!ONB-nifc: UWAGA: Discantus (s 94r-95r., skan 0096-0097), Tenor (s. 70r-71r, skan 0242-0243), Bassus (s. 92r-93r, skan 0395-0396)
!!!key:
**kern	**text	**text	**kern	**text	**text	**kern	**text	**text
*part3	*part3	*part3	*part2	*part2	*part2	*part1	*part1	*part1
*staff3	*staff3	*staff3	*staff2	*staff2	*staff2	*staff1	*staff1	*staff1
*I"[Bassus]	*	*	*I"[Tenor]	*	*	*I"[Discantus]	*	*
*I'B	*	*	*I'T	*	*	*I'D	*	*
*ICvox	*	*	*ICvox	*	*	*ICvox	*	*
*Ibass	*	*	*Itenor	*	*	*Isoprn	*	*
*clefF4	*	*	*clefC4	*	*	*clefC3	*	*
*k[]	*	*	*k[]	*	*	*k[]	*	*
*C:	*	*	*C:	*	*	*C:	*	*
*yyM2/1	*	*	*yyM2/1	*	*	*yyM2/1	*	*
=1	=1	=1	=1	=1	=1	=1	=1	=1
!!LO:TX:t=P:problem: brak metrum	!	!	!	!	!	!	!	!
!	!	!	!	!	!	!LO:TX:t=P:problem=brak źródła z tekstem	!	!
1D	Vir-	.	1D	Vir-	.	1d	Vir-	.
1AA	-gi-	.	1C	-gi-	.	1e	-gi-	.
=2	=2	=2	=2	=2	=2	=2	=2	=2
1A	-ni	.	1D	-ni	.	1f	-ni	.
2F/	Ma-	.	1F	ma-	.	2c/	ma-	.
2D/	-ri-	.	.	.	.	1f	-ri-	.
=3	=3	=3	=3	=3	=3	=3	=3	=3
1C	-a-	.	1G	-ri-	.	.	.	.
.	.	.	.	.	.	2e/	-a-	.
!	!	!	!LO:SIC:v:t=custos E	!	!	!	!	!
2FF/	.	.	1F	-e	.	2d/	.	.
1AA	-e	.	.	.	.	1c	-e	.
!	!	!	!LO:LB:g=original	!	!	!	!	!
=4	=4	=4	=4	=4	=4	=4	=4	=4
!LO:SIC:v:t=custos GG	!	!	!	!	!	!	!	!
*	*	*	*lig	*	*	*	*	*
!	!	!	!	!	!	!LO:SIC:v:t=custos B	!	!
.	.	.	1E	Ve-	.	.	.	.
2GG/	.	.	.	.	.	2B/	.	.
!LO:LB:g=original	!	!	!	!	!	!	!	!
!	!	!	!	!	!	!LO:LB:g=original	!	!
1FF	.	.	1F	.	.	2A/	.	.
.	.	.	.	.	.	1c	ve-	.
*	*	*	*Xlig	*	*	*	*	*
=5	=5	=5	=5	=5	=5	=5	=5	=5
1GG	ve-	.	1D	.	.	.	.	.
.	.	.	.	.	.	2B/	.	.
2FF/	-ni-	.	1A	-ni-	.	1c	-ni-	.
1F	-to-	.	.	.	.	.	.	.
=6	=6	=6	=6	=6	=6	=6	=6	=6
.	.	.	1G	-to-	.	2d/	-to-	.
2E/	.	.	.	.	.	2e\	-rent	.
2F\	-rent	.	1F	-rant	.	2c/	.	.
2D/	cu-	.	.	.	.	1f	cu-	.
=7	=7	=7	=7	=7	=7	=7	=7	=7
1C	-sti-	.	1G	cu-	.	.	.	.
.	.	.	.	.	.	2e\	-sti-	.
*lig	*	*	*	*	*	*	*	*
1FF	.	.	1F	-sti	.	2d/	.	.
.	.	.	.	.	.	1c	.	.
=8	=8	=8	=8	=8	=8	=8	=8	=8
1GG	.	.	1E	a-	.	.	.	.
!	!	!	!	!	!	!LO:SIC:v:t=custos A	!	!
.	.	.	.	.	.	2B/	.	.
!	!	!	!	!	!	!LO:LB:g=original	!	!
*Xlig	*	*	*	*	*	*	*	*
2FF/	.	.	1F	.	.	2A/	.	.
1BB	.	.	.	.	.	1B-X	-ſti-	.
=9	=9	=9	=9	=9	=9	=9	=9	=9
.	.	.	0D;	-ni	.	.	.	.
2GG/	a-	.	.	.	.	2B-yX/	-a-	.
!LO:TX:t=P:problem= fermata od góry i od dołu	!	!	!	!	!	!	!	!
!LO:SIC:v:t=custos A	!	!	!	!	!	!	!	!
!LO:N:vis=0	!	!	!	!	!	!LO:N:vis=0	!	!
1D;	-ni	.	.	.	.	1A;	-ni	.
!LO:LB:g=original	!	!	!	!	!	!	!	!
=10	=10	=10	=10	=10	=10	=10	=10	=10
!	!	!	!LO:SIC:v:t=custos c	!	!	!	!	!
1A	An-	Mor-	1A	An-	Mor-	1e	An-	Mor-
!	!	!	!LO:LB:g=original	!	!	!	!	!
1A	-ge-	-tem	1c	-ge-	-tem	2e/	-ge-	-tem
.	.	.	.	.	.	2f/	.	.
=11	=11	=11	=11	=11	=11	=11	=11	=11
1G	-lus	mor-	1d	-lus	mor-	1g	-lus	mor-
1F	nun-	-te	1A	nun-	-te	2c/	nunc-	-te
!	!	!	!	!	!	!LO:SIC:v:t=custos e	!	!
.	.	.	.	.	.	2d/	.	.
!	!	!	!	!	!	!LO:LB:g=original	!	!
=12	=12	=12	=12	=12	=12	=12	=12	=12
1E	-cti-	fv-	1G	-cti-	fu-	1e	-ci-	fu-
2AA/	.	-ga-	1A	-a-	-ga-	2e\	-a-	-ga-
2D/	-a-	.	.	.	.	2f\	-nit	.
=13	=13	=13	=13	=13	=13	=13	=13	=13
2C/	-nit	-vit	1A	-nit	-vit	2e\	.	-vit
2AA,/	.	.	.	.	.	2c,/	.	.
2A\	a-	vi-	1A	a-	vi-	2e\	a-	vi-
2F\	-gnus	-tam	.	.	.	2f\	-gnus	-tam
=14	=14	=14	=14	=14	=14	=14	=14	=14
1E	.	.	1G	-gnus	-tam	1g	.	.
2C/	o-	no-	1A	o-	no-	2e\	o-	no-
!LO:SIC:v:t=custos C	!	!	!	!	!	!	!	!
1D	-ves	-bis	.	.	.	1f	-ves	-bis
!LO:LB:g=original	!	!	!	!	!	!	!	!
=15	=15	=15	=15	=15	=15	=15	=15	=15
.	.	.	1G	-ves	-bis	.	.	.
2C/	re-	do-	.	.	.	1e	re-	do-
1D	-de-	-na-	1F	re-	do-	.	.	.
.	.	.	.	.	.	1d	-de-	-na-
=16	=16	=16	=16	=16	=16	=16	=16	=16
*lig	*	*	*lig	*	*	*	*	*
1AA	.	.	1E	-de-	-na-	.	.	.
.	.	.	.	.	.	2c/	.	.
!	!	!	!LO:SIC:v:t=custos D	!	!	!	!	!
1D	.	.	1F	.	.	1d	.	.
!	!	!	!LO:LB:g=original	!	!	!	!	!
*Xlig	*	*	*Xlig	*	*	*	*	*
=17	=17	=17	=17	=17	=17	=17	=17	=17
!	!	!	!	!	!	!LO:SIC:v:t=custos c	!	!
1F	-mit	-vit	1D	-mit	-vit	1d	-mit	-vit
!LO:TX:t=P:problem=powinno być słowo "reconciliavit"	!	!	!	!	!	!	!	!
!	!	!	!	!	!	!LO:LB:g=original	!	!
2F\	re-	dux	1F	re-	dux	2c/	re-	dux
2D/	-con-	.	.	.	.	1f	-con-	vi-
=18	=18	=18	=18	=18	=18	=18	=18	=18
1C	-ci-	vi-	1G	-con-	vi-	.	.	.
.	.	.	.	.	.	2e\	-ci-	-te
1F	-li-	-te	1D	-ci-	-te	1f	.	e-
=19	=19	=19	=19	=19	=19	=19	=19	=19
1FF	-an-	e-	1F	-li-	e-	2d/	.	-ter-
.	.	.	.	.	.	1c	-li-	.
1GG	-do	-ter-	1D	-an-	-ter-	.	.	.
.	.	.	.	.	.	2B/	-an-	-ne
=20	=20	=20	=20	=20	=20	=20	=20	=20
1AA	.	-ne	1C	-do	-ne	1c	-do	re-
1BB	pec-	re-	1A	pec-	re-	1d	pec-	.
=21	=21	=21	=21	=21	=21	=21	=21	=21
!LO:SIC:v:t=custos FF	!	!	!	!	!	!	!	!
2AA/	.	-gnas	1A	-ca-	-gnas	1c	-ca-	-gnas
!LO:LB:g=original	!	!	!	!	!	!	!	!
2FF/	.	vi-	.	.	.	.	.	.
*	*	*	*lig	*	*	*	*	*
1C	-ca-	-vus	1G	-to-	vi-	0c	-to-	vi-
=22	=22	=22	=22	=22	=22	=22	=22	=22
2AA/	-to-	.	1A	.	.	.	.	.
2FF/	-res	.	.	.	.	.	.	.
*	*	*	*Xlig	*	*	*	*	*
2BB-X/	.	.	0.F;	-res	-vus	2d/	-res	-vus
2GG/	.	.	.	.	.	2B-X/	.	.
=23	=23	=23	=23	=23	=23	=23	=23	=23
!	!	!	!	!	!	!LO:N:vis=00	!	!
0D;	.	.	.	.	.	0A;>	.	.
=24	=24	=24	=24	=24	=24	=24	=24	=24
1A	Au-	An-	1AA	Au-	An-	1e	Au-	An-
*	*	*	*clefC5	*	*	*	*	*
!LO:SIC:v:t=custos F	!	!	!	!	!	!	!	!
1G	-di	-ge-	1C	-di	-ge-	1e	-di	-ge-
!LO:LB:g=original	!	!	!	!	!	!	!	!
=25	=25	=25	=25	=25	=25	=25	=25	=25
1F	nu(n)c	-li-	1D	nu(n)c	-li-	1d	nu(n)c	-li-
2F\	ma-	-cus	1F	ma-	-cus	2c/	ma-	-cus
2D/	-ri-	.	.	.	.	2d/	.	ſum
=26	=26	=26	=26	=26	=26	=26	=26	=26
2E\	-a	ſum	1G	-ri-	sum	2B/	-ri-	.
1G	ſum-	e-	.	.	.	2G/	-a	.
.	.	.	1D	-a	e-	2A/	.	e-
1F	-mi	-go	.	.	.	2B,/	.	-go
=27	=27	=27	=27	=27	=27	=27	=27	=27
!	!	!	!	!	!	!LO:TX:t=P:problem=nieczytelny drugi tekst	!	!
!	!	!	!	!	!	!LO:TX:t=P:problem=nieczytelny pierwszy tekst	!	!
.	.	.	1C	sum	-go	1c	ſum	nun-
2E/	pa-	.	.	.	.	.	.	.
1D	-tris	nun-	1F	pa-	nu(n)-	2A/	.	-cti-
.	.	.	.	.	.	2F/	pa-	-us
=28	=28	=28	=28	=28	=28	=28	=28	=28
2C/	.	-cti-	1E	-tris	-cti-	2G/	-tris	.
2AA/	.	-us	.	.	.	1A	.	.
1BB-X	fi-	pro	1D	fi-	-us	.	.	.
.	.	.	.	.	.	2G/	fi-	pro
=29	=29	=29	=29	=29	=29	=29	=29	=29
2AA/	.	.	1E	-li-	pro	2A/	-li-	me-
!LO:SIC:v:t=custos AA	!	!	!	!	!	!	!	!
2GG/	.	.	.	.	.	2B/	.	.
!LO:LB:g=original	!	!	!	!	!	!	!	!
1AA	-li-	meſ-	1C	.	me-	1c	-a	-ſtis
=30	=30	=30	=30	=30	=30	=30	=30	=30
!	!	!	!LO:SIC:v:t=custos F	!	!	!	!	!
1GG,	-a	-tis	1D	-a	-stis	1B,	.	.
!	!	!	!LO:LB:g=original	!	!	!	!	!
1D	pa-	pa-	1F	pa-	pa-	2A/	pa-	pa-
.	.	.	.	.	.	2d/	.	.
=31	=31	=31	=31	=31	=31	=31	=31	=31
1F	-tres	-ri-	1A	-ri-	-ri-	2c/	-ri-	-ri-
.	.	.	.	.	.	2d/	-es	-es
1E,	.	-es	1G	-es	-es	1e,	.	.
=32	=32	=32	=32	=32	=32	=32	=32	=32
1AA	cus-	criſ-	1A	cus-	cus-	1e	cuſ	cuſ-
1D	-tum	-tum	1F	-tu(m)	-tum	1d	tum	-tum
=33	=33	=33	=33	=33	=33	=33	=33	=33
!	!	!	!	!	!	!LO:SIC:v:t=custos c	!	!
2GG/	vi-	et	1G	vi-	et	2B/	vi-	et
!	!	!	!	!	!	!LO:LB:g=original	!	!
1C	.	de-	.	.	.	1c	-ven-	de-
*	*	*	*lig	*	*	*	*	*
.	.	.	1E	-ven-	de-	.	.	.
2C/	-ven-	-um	.	.	.	2c/	-tem	-um
=34	=34	=34	=34	=34	=34	=34	=34	=34
*lig	*	*	*	*	*	*lig	*	*
1FF	.	.	1F	.	-um	1A	.	.
*	*	*	*Xlig	*	*	*	*	*
1GG	.	.	1D	-tem	im	1B	.	.
*Xlig	*	*	*	*	*	*Xlig	*	*
=35	=35	=35	=35	=35	=35	=35	=35	=35
!LO:SIC:v:t=custos F	!	!	!	!	!	!	!	!
2FF/	-tem	vi-	1F	et	vi-	2A/	et	vi-
!LO:LB:g=original	!	!	!	!	!	!	!	!
1F	et	-de-	.	.	.	2B/	glo-	-de-
!	!	!	!LO:SIC:v:t=custos F	!	!	!	!	!
.	.	.	1G	glo-	-de-	1c	-ri-	.
2E/	glo-	-bi-	.	.	.	.	.	.
!	!	!	!LO:LB:g=original	!	!	!	!	!
=36	=36	=36	=36	=36	=36	=36	=36	=36
2F\	-ri-	-tur	1F	-ri-	-bi-	2A/	-a(m)	-bi-
2D/	-am	in	.	.	.	1F	.	-t(ur)
1C	.	.	1G	-am	-tur	.	.	.
.	.	.	.	.	.	2E/	.	.
=37	=37	=37	=37	=37	=37	=37	=37	=37
2FF/	.	.	1A	car-	gal-	1F	car-	in
!LO:TX:t=P:problem=nieczytelny zapis pierwszego tekstu	!	!	!	!	!	!	!	!
1F	.	ga-	.	.	.	.	.	.
.	.	.	1G	-nes	-li-	1G	-nes	ga-
2E/	.	-li-	.	.	.	.	.	.
=38	=38	=38	=38	=38	=38	=38	=38	=38
2F\	re-	.	1F	re	.	1A	re-	.
2D/	-ſur-	.	.	.	.	.	.	.
2C/	-gen-	.	1G	-ſur-	-le-	2c/	-ſur-	.
!	!	!	!	!	!	!LO:SIC:v:t=custos e	!	!
2BB/	.	.	.	.	.	2d/	.	.
!	!	!	!	!	!	!LO:LB:g=original	!	!
=39	=39	=39	=39	=39	=39	=39	=39	=39
2AA/	.	.	1E	-gen-	.	1e	-gen-	-li-
!LO:SIC:v:t=custos FF	!	!	!	!	!	!	!	!
2GG/	.	.	.	.	.	.	.	.
!LO:LB:g=original	!	!	!	!	!	!	!	!
1FF	.	-le-	1F	.	.	1c	.	-le-
=40	=40	=40	=40	=40	=40	=40	=40	=40
0F;	-tem	-a	0D;	-tem	-a	0d;	-tem	-a
=41	=41	=41	=41	=41	=41	=41	=41	=41
!	!	!	!LO:TX:t=P:problem=nieczytelny zapis tekstu w drugiej linijce	!	!	!	!	!
!LO:TX:t=P:problem=nieczytelny zapis tekstu w drugiej linijce	!	!	!LO:SIC:v:t=custos c	!	!	!LO:TX:t=P:problem=nieczytelny zapis tekstu w drugiej linijce	!	!
1D	Cre-	.	1A	Cre-	.	1f	Cre-	Se-
!	!	!	!LO:LB:g=original	!	!	!	!	!
*	*	*	*clefC4	*	*	*	*	*
2AA/	-den-	.	1c	-den-	.	1e	-den-	-mi-
2C/	.	.	.	.	.	.	.	.
=42	=42	=42	=42	=42	=42	=42	=42	=42
1BB	-dum	cri-	1d	-dum	cri-	2f\	-dum`	-nus
.	.	.	.	.	.	2d\	.	cri-
0AA	est	-stum	0A	eſt	-stum	0e	eſt	-ſtum
=43	=43	=43	=43	=43	=43	=43	=43	=43
.	.	.	.	.	.	.	.	.
1E	iu-	pro-	1G	iu-	pro-	1g	iu-	pro-
=44	=44	=44	=44	=44	=44	=44	=44	=44
!	!	!	!	!	!	!LO:SIC:v:t=custos f	!	!
1F	-bi-	-ceſ-	1A	-bi-	-ceſ-	1f	-bi-	-ceſ-
!LO:SIC:v:t=custos C	!	!	!	!	!	!	!	!
!	!	!	!	!	!	!LO:LB:g=original	!	!
1D	-ſe-	-si-	1A	-se-	-si-	1f	-se-	-si-
!LO:LB:g=original	!	!	!	!	!	!	!	!
=45	=45	=45	=45	=45	=45	=45	=45	=45
2C/	-li	-ſe	1A	-li	-ſe	2e\	-li	-ſe
2D,/	.	.	.	.	.	2f\	.	ex
2AA/	an-	ex	1A	an-	ex	2e\	an-	ma-
2D/	-ge-	.	.	.	.	2d/	-ge-	-ri-
=46	=46	=46	=46	=46	=46	=46	=46	=46
2C/	.	ma-	1c	-ge-	ma-	2e\	.	-a
2AA/	.	-ri-	.	.	.	2c/	.	.
2BB/	-lo	-a	1G	-lo-	-ri-	2d/	-lo	.
!LO:TX:t=P:problem=nieczytelny zapis pierwszego tekstu	!	!	!	!	!	!LO:TX:t=P:problem=nieczytelny zapis pierwszego tekstu	!	!
2C/	.	.	.	.	.	2c/	ve-	ve-
=47	=47	=47	=47	=47	=47	=47	=47	=47
!	!	!	!LO:SIC:v:t=custos E	!	!	!	!	!
1D	.	ve-	1F	-re	-a	2A/	-ra-	-re
.	.	.	.	.	.	2B/	-ci	.
!	!	!	!LO:LB:g=original	!	!	!	!	!
*lig	*	*	*lig	*	*	*	*	*
1C	.	-re	1E	.	ve-	0c	.	.
=48	=48	=48	=48	=48	=48	=48	=48	=48
1FF	ci	con-	1F	.	.	.	.	.
*Xlig	*	*	*Xlig	*	*	*	*	*
1GG	.	-ſer-	1D	ci	-re	1B	.	.
=49	=49	=49	=49	=49	=49	=49	=49	=49
!	!	!	!	!	!	!LO:SIC:v:t=custos G	!	!
1AA	quam	-va	1C	qvam	con-	1A	qua(m)	con-
!	!	!	!	!	!	!LO:LB:g=original	!	!
1C	iu-	ma-	1E	iu-	-ser-	2G/	iu-	-ſer-
.	.	.	.	.	.	1g	-de-	-va
=50	=50	=50	=50	=50	=50	=50	=50	=50
!LO:SIC:v:t=custos GG	!	!	!	!	!	!	!	!
1BB	-de-	-ter	1D	-de-	-va	.	.	.
.	.	.	.	.	.	1f	-o-	ma-
!LO:LB:g=original	!	!	!	!	!	!	!	!
1GG	-o-	nos	1G	-o-	ma-	.	.	.
.	.	.	.	.	.	2e\	.	-ter
=51	=51	=51	=51	=51	=51	=51	=51	=51
2FF/	-rum	.	1A	-rum	-ter	1f	-rum	nos
1F	tur-	et	.	.	.	.	.	.
.	.	.	1A	tur-	nos	2c/	tur-	et
1D	-be	.	.	.	.	1f	-be	.
=52	=52	=52	=52	=52	=52	=52	=52	=52
.	.	.	1F	-be	et	.	.	.
1BB	fal-	tu-	.	.	.	1d	fal-	tu-
.	.	.	1G	fal-	tu-	.	.	.
1C	-la-	-e	.	.	.	1e	-la-	-e
=53	=53	=53	=53	=53	=53	=53	=53	=53
*	*	*	*lig	*	*	*	*	*
.	.	.	1E	-la-	-e	.	.	.
2C/	.	.	.	.	.	2e\	-ci	re
1FF	.	.	1F	.	.	1c	.	.
*	*	*	*Xlig	*	*	*	*	*
=54	=54	=54	=54	=54	=54	=54	=54	=54
!	!	!	!	!	!	!LO:SIC:v:t=custos A	!	!
2GG/	.	.	00D;	-ci	re	2B-X/	.	.
!	!	!	!	!	!	!LO:LB:g=original	!	!
2AA/	.	.	.	.	.	2A/	.	.
2BB/	.	.	.	.	.	2F/	.	.
2GG/	.	.	.	.	.	2G/	.	.
=55	=55	=55	=55	=55	=55	=55	=55	=55
!LO:TX:t=P:problem= Fermata od góry i od dołu	!	!	!	!	!	!	!	!
!LO:N:vis=00	!	!	!	!	!	!LO:N:vis=00	!	!
0D;	-ci	re	.	.	.	0A;	.	.
==	==	==	==	==	==	==	==	==
*-	*-	*-	*-	*-	*-	*-	*-	*-
!!!system-decoration: [(s1,s2,s3)]
!!!AIN: 1 bass 1 soprn 1 tenor
!!!ENC: Anastazja Marusiak
!!!END: 2022-01-13
!!!ENC: Jan Barakat
!!!END: 2022-01-24
!!!RDF**kern: < = above
!!!RDF**kern: > = below
